X: 8107
T: Contentment Is Wealth
R: jig
M: 6/8
K: Edorian
E2F|:~G3 Eed|~B3 EAG|~F3 DdB|AFD D2f|~g3 edB|
BAB d2d|1 B/c/dB DFA|GED E2F:|2 B/c/dB AGF|GED E2B||
|:~e3 Beg|bge gfe|ded Adf|afd fed|
e2e Beg|bge gfe|B/c/dB AGF|GED E2z:|

